icons/spam-2-fill.svg

<svg xmlns="http://www.w3.org/2000/svg" width="24" height="24" fill="none"><g clip-path="url(#a)"><g><path fill="#121212" d="M16.218 2.50002L21.901 8.18202V16.218L16.218 21.901H8.18202L2.49902 16.218V8.18202L8.18202 2.49902H16.218V2.50002ZM11 15V17H13V15H11ZM11 7.00002V13H13V7.00002H11Z"/></g></g><defs><clipPath id="a"><rect width="24" height="24" fill="white"/></clipPath></defs></svg>

<svg width="24" height="24" fill="none" xmlns="http://www.w3.org/2000/svg"><g clip-path="url(#a)"><path d="m16.218 2.5 5.683 5.682v8.036l-5.683 5.683H8.182l-5.683-5.683V8.182l5.683-5.683h8.036V2.5ZM11 15v2h2v-2h-2Zm0-8v6h2V7h-2Z" /></g><defs><clipPath id="a"><path fill="#fff" d="M0 0h24v24H0z"/></clipPath></defs></svg>
